X:1
T: Scotland Yet
C:
R:Strathspey
Q: 128
K:D
M:4/4
L:1/16
|:A2|FD3 A3F d3B G3B|AF3 F3D E4 E2G2|FD3 A3F d3B B3d|ce3 E3^G A6 A2|
FD3 A3F d3B G3B|AF3 F3D E4 E2G2|FD3 A3F d3B B3d|ce3 E3^G A6 A2|
d3A e3A f3e d3f|e3d cB3 A6 G2F|A3 d3A f3d B3d|Ad3 f3e d6 A2|
d3A e3A f3e d3f|e3d cB3 A6 G2|FA3 d3A f3d B3d|Ad3 f3e d6:|
